local/share/icons/dracula-icons-main/scalable/apps/distributor-logo-kubuntu.svg

<?xml version="1.0" encoding="UTF-8"?>
<svg xmlns="http://www.w3.org/2000/svg" xmlns:xlink="http://www.w3.org/1999/xlink" width="64" height="64" viewBox="0 0 64 64">
<path fill-rule="nonzero" fill="rgb(10.196078%, 52.941176%, 88.627451%)" fill-opacity="1" d="M 8.378906 1.324219 C 10.953125 1.292969 13.34375 2.648438 14.640625 4.871094 C 15.933594 7.09375 15.933594 9.839844 14.640625 12.0625 C 13.34375 14.285156 10.953125 15.640625 8.378906 15.609375 C 4.46875 15.5625 1.324219 12.378906 1.324219 8.464844 C 1.324219 4.554688 4.46875 1.371094 8.378906 1.324219 Z M 8.378906 1.324219 "/>
<path fill-rule="nonzero" fill="rgb(100%, 100%, 100%)" fill-opacity="1" d="M 8.46875 4.234375 C 6.128906 4.234375 4.234375 6.128906 4.234375 8.464844 C 4.234375 10.804688 6.128906 12.699219 8.46875 12.699219 C 10.804688 12.699219 12.699219 10.804688 12.699219 8.464844 C 12.699219 6.128906 10.804688 4.234375 8.46875 4.234375 Z M 8.210938 5.082031 C 8.230469 5.085938 8.246094 5.097656 8.257812 5.113281 L 8.675781 5.992188 C 8.878906 6 9.082031 6.035156 9.28125 6.097656 L 9.953125 5.429688 C 9.96875 5.410156 10 5.40625 10.023438 5.421875 L 10.554688 5.746094 C 10.578125 5.757812 10.589844 5.789062 10.578125 5.8125 L 10.257812 6.726562 C 10.378906 6.863281 10.480469 7.011719 10.566406 7.171875 L 11.5625 7.171875 C 11.589844 7.171875 11.613281 7.191406 11.617188 7.214844 L 11.765625 7.824219 C 11.773438 7.847656 11.761719 7.875 11.738281 7.886719 L 10.488281 8.160156 C 10.394531 7.5625 10.046875 7.039062 9.53125 6.722656 C 9.015625 6.410156 8.390625 6.339844 7.816406 6.53125 L 7.808594 6.523438 L 7.539062 5.289062 C 7.539062 5.261719 7.558594 5.238281 7.582031 5.234375 L 8.191406 5.085938 C 8.195312 5.082031 8.203125 5.082031 8.210938 5.082031 Z M 6.230469 5.976562 C 6.242188 5.976562 6.257812 5.980469 6.265625 5.988281 L 7.21875 6.851562 C 6.742188 7.21875 6.453125 7.777344 6.425781 8.375 C 6.398438 8.976562 6.636719 9.558594 7.078125 9.964844 L 7.078125 9.980469 L 6.226562 10.921875 C 6.203125 10.933594 6.175781 10.933594 6.15625 10.914062 L 5.714844 10.472656 C 5.695312 10.453125 5.691406 10.421875 5.707031 10.402344 L 6.242188 9.585938 C 6.140625 9.40625 6.0625 9.214844 6.015625 9.015625 L 5.09375 8.789062 C 5.066406 8.78125 5.050781 8.757812 5.050781 8.734375 L 5.050781 8.109375 C 5.050781 8.082031 5.066406 8.058594 5.09375 8.050781 L 6.042969 7.855469 C 6.097656 7.679688 6.171875 7.511719 6.261719 7.359375 L 5.746094 6.507812 C 5.730469 6.484375 5.734375 6.453125 5.753906 6.4375 L 6.195312 5.992188 C 6.203125 5.984375 6.214844 5.976562 6.230469 5.976562 Z M 10.460938 8.90625 L 11.703125 9.183594 C 11.722656 9.195312 11.734375 9.226562 11.730469 9.25 L 11.566406 9.851562 C 11.558594 9.878906 11.535156 9.898438 11.507812 9.894531 L 10.535156 9.839844 C 10.429688 10.015625 10.300781 10.179688 10.152344 10.320312 L 10.417969 11.234375 C 10.425781 11.257812 10.414062 11.285156 10.390625 11.296875 L 9.851562 11.609375 C 9.828125 11.625 9.796875 11.617188 9.777344 11.597656 L 9.132812 10.875 C 8.953125 10.914062 8.773438 10.9375 8.59375 10.933594 L 8.113281 11.808594 C 8.101562 11.832031 8.074219 11.84375 8.050781 11.835938 L 7.445312 11.671875 C 7.421875 11.664062 7.402344 11.640625 7.402344 11.613281 L 7.730469 10.378906 L 7.734375 10.375 C 8.292969 10.589844 8.910156 10.546875 9.433594 10.265625 C 9.957031 9.984375 10.332031 9.488281 10.460938 8.90625 Z M 10.460938 8.90625 "/>
</svg>

<svg width="64" height="64" version="1.1" viewBox="0 0 16.933 16.933" xmlns="http://www.w3.org/2000/svg">
 <g transform="matrix(1.0385 0 0 1.0385 -.41232 -.32567)" stroke-width=".92729">
  <path d="m8.467 1.588a6.879 6.879 0 1 1 0 13.757 6.879 6.879 0 0 1 0-13.757z" fill="#1a87e2"/>
 </g>
 <path d="M8.467 4.233a4.233 4.233 0 1 0 0 8.467 4.233 4.233 0 0 0 0-8.467zm-.257.85c.02.002.037.014.046.032l.418.879c.203.006.408.041.607.105l.671-.671a.056.056 0 0 1 .07-.008l.534.325a.057.057 0 0 1 .024.068l-.324.914c.122.136.226.285.31.444h.997c.027 0 .05.019.056.044l.148.608a.057.057 0 0 1-.03.065l-1.25.273a2.044 2.044 0 0 0-2.67-1.631l-.01-.006-.268-1.236c0-.026.019-.049.044-.055l.607-.148c.007-.002.013-.002.02-.002zm-1.98.894a.056.056 0 0 1 .037.01l.95.865a2.038 2.038 0 0 0-.137 3.113v.014l-.854.943a.058.058 0 0 1-.07-.008l-.442-.441a.057.057 0 0 1-.007-.072l.534-.814a2.21 2.21 0 0 1-.227-.573l-.922-.226a.057.057 0 0 1-.043-.055v-.625c0-.027.019-.05.045-.056l.95-.198c.053-.175.127-.342.218-.496l-.517-.852a.057.057 0 0 1 .008-.07l.442-.442a.055.055 0 0 1 .035-.017zm4.232 2.93l1.24.278c.022.012.034.04.027.065l-.162.603a.057.057 0 0 1-.059.043l-.972-.057a2.21 2.21 0 0 1-.383.483l.265.911a.057.057 0 0 1-.026.065l-.542.312a.057.057 0 0 1-.071-.011l-.646-.725c-.178.042-.359.062-.538.06l-.48.873a.057.057 0 0 1-.065.028l-.604-.163a.057.057 0 0 1-.042-.058l.326-1.235.006-.003a2.044 2.044 0 0 0 2.726-1.468z" fill="#fff"/>
</svg>
